X:9
T:Tampico Road
C: Sarah Gowan
M:6/8
R:Jig
L:1/16
K:Am
E2G2|"Am"A2G2A2 e2f2e2|"Dm"d2c2d2 e2c2A2|"Am"A2G2A2 e2f2e2|"Dm"d2c2B2 B3 E2G2|
"Am"A4A2e4e2|"Dm"f2e2d2 "Am"e2c2A2|"Dm"d2c2A2 "Em"B2A2G2|"Am"(A6A4):|
|:c2d2|"C"e4e2 "Am"a6|"C"g2a2e2 "Dm"d2c2A2|"C"e2d2e2 "Am"a2g2a2|"Dm"d2c2d2 "E7"e4E2G2|
"Am"A2G2A2e6|"Dm"d2e2g2 "Am"e2A2A2|c2B2A2 "Em"B2A2G2|"Am"(A6A4):|
